X: 3
T: Going To The Well For Water
R: slide
M: 12/8
L: 1/8
K: Dmaj
|: A2 f A2 f A2 f fed | B2 g B2 g B2 g gfe |
c2 c BcB Ace a2 f | [1 gfe cde d3 dcB :| [2 gfe cde d3 d2 e |]
|: f2 f fed e2 e edc | d2 d dcB c2 c cBA |
GBB GBB FAA FAA | [1 EFE e2 d cBc d2 e :| [2 EFE e2 d cBc dcB | ]


Tune 455	Setting 26000

